Origami/24x24/apps/cisco-anyconnect.svg

<svg width="24" height="24" version="1" xmlns="http://www.w3.org/2000/svg">
 <path d="m11.999975 2.0000512c-5.5399861 0-9.999975 4.4599889-9.999975 9.9999748 0 5.539986 4.4599889 9.999975 9.999975 9.999975 5.539986 0 9.999975-4.459989 9.999975-9.999975 0-5.5399859-4.459989-9.9999748-9.999975-9.9999748z" style="fill:#cccccc"/>
 <path d="M 8.9999825,5.0000437 A 9.999975,9.999975 0 0 0 3.576168,6.6103912 C 2.5821895,8.1648718 2,10.010357 2,12.000026 c 0,0.558783 0.047487,1.106305 0.1347653,1.639645 a 6.9999825,6.9999825 0 0 1 6.8652172,-5.6396348 6.9999825,6.9999825 0 0 1 6.9999825,6.9999828 6.9999825,6.9999825 0 0 1 -5.65233,6.863264 c 0.537346,0.08864 1.089118,0.136718 1.65234,0.136718 1.99785,0 3.85074,-0.586367 5.409166,-1.587886 A 9.999975,9.999975 0 0 0 18.999958,15.000019 9.999975,9.999975 0 0 0 8.9999825,5.0000437 Z" style="fill:#318bcf"/>
 <path d="m11.999975 2.50005c-0.04755 0-0.09421 0.00325-0.141601 0.00391a9.999975 9.999975 0 0 0 -2.8583915 6.9960725 9.999975 9.999975 0 0 0 9.6269285 9.9863035c1.03642-0.917424 1.878626-2.044453 2.461908-3.320305a6.9999825 6.9999825 0 0 1 -2.088861 0.333984 6.9999825 6.9999825 0 0 1 -6.999983 -6.9999825 6.9999825 6.9999825 0 0 1 3.832021 -6.2411953c-1.179563-0.4872976-2.472396-0.7587872-3.832021-0.7587872z" style="opacity:.2"/>
 <path d="m11.999975 2.0000512c-0.04755 0-0.09421 0.00325-0.141601 0.00391a9.999975 9.999975 0 0 0 -2.8583915 6.9960776 9.999975 9.999975 0 0 0 9.9999755 9.9999752 9.999975 9.999975 0 0 0 0.154296 -0.0078c0.940863-0.962702 1.682241-2.11686 2.173823-3.398429a6.9999825 6.9999825 0 0 1 -2.328119 0.406231 6.9999825 6.9999825 0 0 1 -6.999983 -6.9999822 6.9999825 6.9999825 0 0 1 3.832021 -6.2411954c-1.179563-0.4872976-2.472396-0.7587872-3.832021-0.7587872z" style="fill:#7bc450"/>
 <path d="m11.999975 2.0000512c5.534986 0 9.990975 4.4599889 9.990975 9.9999748 0 0.08394-4e-3 0.16657-0.0058 0.25-0.132-5.4229868-4.533989-9.749976-9.984975-9.749976-5.4509864 0-9.8529754 4.3269892-9.984975 9.749976-2e-3 -0.08343-0.00584-0.166065-0.00584-0.25 0-5.5399859 4.4559388-9.9999748 9.9909745-9.9999748z" style="fill:#ffffff;opacity:.2"/>
 <path d="m2.0059 12.250026c-0.00205 0.083499-0.00585 0.165999-0.00585 0.249999 0 5.539986 4.4599888 9.999975 9.999975 9.999975 5.539986 0 9.999975-4.459989 9.999975-9.999975 0-0.084-4e-3 -0.1665-6e-3 -0.249999-0.132 5.422986-4.537989 9.749975-9.993975 9.749975-5.4559864 0-9.8619753-4.326989-9.993975-9.749975z" style="opacity:.2"/>
</svg>

<svg xmlns="http://www.w3.org/2000/svg" width="24" height="24" version="1">
 <path style="fill:#cccccc" d="M 11.999975,2.0000512 C 6.4599889,2.0000512 2,6.4600401 2,12.000026 c 0,5.539986 4.4599889,9.999975 9.999975,9.999975 5.539986,0 9.999975,-4.459989 9.999975,-9.999975 0,-5.5399859 -4.459989,-9.9999748 -9.999975,-9.9999748 z"/>
 <path style="fill:#318bcf" d="M 8.9999825,5.0000437 A 9.999975,9.999975 0 0 0 3.576168,6.6103912 C 2.5821895,8.1648718 2,10.010357 2,12.000026 c 0,0.558783 0.047487,1.106305 0.1347653,1.639645 a 6.9999825,6.9999825 0 0 1 6.8652172,-5.6396348 6.9999825,6.9999825 0 0 1 6.9999825,6.9999828 6.9999825,6.9999825 0 0 1 -5.65233,6.863264 c 0.537346,0.08864 1.089118,0.136718 1.65234,0.136718 1.99785,0 3.85074,-0.586367 5.409166,-1.587886 A 9.999975,9.999975 0 0 0 18.999958,15.000019 9.999975,9.999975 0 0 0 8.9999825,5.0000437 Z"/>
 <path style="opacity:0.2" d="m 11.999975,2.50005 c -0.04755,0 -0.09421,0.00325 -0.141601,0.00391 A 9.999975,9.999975 0 0 0 8.9999825,9.5000325 9.999975,9.999975 0 0 0 18.626911,19.486336 c 1.03642,-0.917424 1.878626,-2.044453 2.461908,-3.320305 A 6.9999825,6.9999825 0 0 1 18.999958,16.500015 6.9999825,6.9999825 0 0 1 11.999975,9.5000325 6.9999825,6.9999825 0 0 1 15.831996,3.2588372 C 14.652433,2.7715396 13.3596,2.50005 11.999975,2.50005 Z"/>
 <path style="fill:#7bc450" d="m 11.999975,2.0000512 c -0.04755,0 -0.09421,0.00325 -0.141601,0.00391 a 9.999975,9.999975 0 0 0 -2.8583915,6.9960776 9.999975,9.999975 0 0 0 9.9999755,9.9999752 9.999975,9.999975 0 0 0 0.154296,-0.0078 c 0.940863,-0.962702 1.682241,-2.11686 2.173823,-3.398429 A 6.9999825,6.9999825 0 0 1 18.999958,16.000016 6.9999825,6.9999825 0 0 1 11.999975,9.0000338 6.9999825,6.9999825 0 0 1 15.831996,2.7588384 C 14.652433,2.2715408 13.3596,2.0000512 11.999975,2.0000512 Z"/>
 <path style="opacity:0.2;fill:#ffffff" d="m 11.999975,2.0000512 c 5.534986,0 9.990975,4.4599889 9.990975,9.9999748 0,0.08394 -0.004,0.16657 -0.0058,0.25 -0.132,-5.4229868 -4.533989,-9.749976 -9.984975,-9.749976 -5.4509864,0 -9.8529754,4.3269892 -9.984975,9.749976 -0.002,-0.08343 -0.00584,-0.166065 -0.00584,-0.25 0,-5.5399859 4.4559388,-9.9999748 9.9909745,-9.9999748 z"/>
 <path style="opacity:0.2" d="M 2.0059,12.250026 C 2.00385,12.333525 2.00005,12.416025 2.00005,12.500025 2.00005,18.040011 6.4600388,22.5 12.000025,22.5 17.540011,22.5 22,18.040011 22,12.500025 c 0,-0.084 -0.004,-0.1665 -0.006,-0.249999 -0.132,5.422986 -4.537989,9.749975 -9.993975,9.749975 -5.4559864,0 -9.8619753,-4.326989 -9.993975,-9.749975 z"/>
</svg>
